X:3
T:Defiance, The
M:6/8
L:1/8
B:Thompson's Compleat Collection of 200 Favourite Country Dances, vol. 3 (London, 1773)
Z:Transcribed and edited by Flynn Titford-Mock, 2007
Z:abc's:AK/Fiddler's Companion
K:Bb
B |\
dfd BdB | cec AcA | Bcd FGA | B[Ff][Dd] [B,2B2]B |\
dfd BdB | c=ef gab | agf cd=e | fcA F2 :|
|: f |\
fed "tr"c=Bc | [Cc]EG | cde | fdB BAB |\
[B,B]DF Bde | fed edc | def gab | fed cBA | B3 [B,2B2] :|

